public/img/whatsappIcon.svg

<svg width="24" height="25" viewBox="0 0 24 25" fill="none" xmlns="http://www.w3.org/2000/svg">
<g id="Frame">
<path id="Vector" d="M6.94 20.7599C8.42 21.6299 10.15 22.1299 12 22.1299C17.52 22.1299 22 17.6499 22 12.1299C22 6.60988 17.52 2.12988 12 2.12988C6.48 2.12988 2 6.60988 2 12.1299C2 13.9499 2.49 15.6599 3.34 17.1299L2 22.1299L6.94 20.7599Z" stroke="white" stroke-width="1.5" stroke-miterlimit="10" stroke-linecap="round" stroke-linejoin="round"/>
<path id="Vector_2" d="M17 15.2999C17 15.4799 16.96 15.6699 16.87 15.8499C16.6288 16.3446 16.2168 16.7353 15.71 16.9499C15.41 17.0799 15.08 17.1399 14.73 17.1399C14.22 17.1399 13.67 17.0199 13.1 16.7699C12.52 16.5199 11.95 16.1899 11.38 15.7799C10.8 15.3599 10.26 14.8899 9.74 14.3799C9.22 13.8599 8.76 13.3099 8.34 12.7399C7.93 12.1699 7.6 11.5999 7.36 11.0299C7.12 10.4599 7 9.90986 7 9.38986C7 9.04986 7.06 8.71986 7.18 8.41986C7.3 8.10986 7.49 7.82986 7.76 7.57986C8.08 7.25986 8.43 7.10986 8.8 7.10986C8.94 7.10986 9.08 7.13986 9.21 7.19986C9.34 7.25986 9.46 7.34986 9.55 7.47986L10.71 9.11986C10.8 9.24986 10.87 9.35986 10.91 9.46986C10.96 9.57986 10.98 9.67986 10.98 9.77986C10.98 9.89986 10.94 10.0199 10.87 10.1399C10.8 10.2599 10.71 10.3799 10.59 10.4999L10.21 10.8999C10.15 10.9599 10.13 11.0199 10.13 11.0999C10.13 11.1399 10.14 11.1799 10.15 11.2199C10.17 11.2599 10.18 11.2899 10.19 11.3199C10.28 11.4899 10.44 11.6999 10.66 11.9599C11.1282 12.51 11.6398 13.0217 12.19 13.4899C12.45 13.7099 12.67 13.8599 12.84 13.9499C12.87 13.9599 12.9 13.9799 12.93 13.9899C12.97 14.0099 13.01 14.0099 13.06 14.0099C13.15 14.0099 13.21 13.9799 13.27 13.9199L13.65 13.5399C13.78 13.4099 13.9 13.3199 14.01 13.2599C14.13 13.1899 14.24 13.1499 14.37 13.1499C14.47 13.1499 14.57 13.1699 14.68 13.2199C14.79 13.2699 14.91 13.3299 15.03 13.4199L16.69 14.5999C16.82 14.6899 16.91 14.7999 16.97 14.9199C16.97 15.0399 17 15.1599 17 15.2999Z" stroke="white" stroke-width="1.5" stroke-miterlimit="10"/>
</g>
</svg>

<svg width="24" height="25" fill="none" xmlns="http://www.w3.org/2000/svg"><g stroke="#fff" stroke-width="1.5" stroke-miterlimit="10"><path d="M6.94 20.76c1.48.87 3.21 1.37 5.06 1.37 5.52 0 10-4.48 10-10s-4.48-10-10-10-10 4.48-10 10c0 1.82.49 3.53 1.34 5l-1.34 5 4.94-1.37Z" stroke-linecap="round" stroke-linejoin="round"/><path d="M17 15.3c0 .18-.04.37-.13.55a2.28 2.28 0 0 1-1.16 1.1c-.3.13-.63.19-.98.19-.51 0-1.06-.12-1.63-.37-.58-.25-1.15-.58-1.72-.99-.58-.42-1.12-.89-1.64-1.4-.52-.52-.98-1.07-1.4-1.64-.41-.57-.74-1.14-.98-1.71C7.12 10.46 7 9.91 7 9.39c0-.34.06-.67.18-.97.12-.31.31-.59.58-.84.32-.32.67-.47 1.04-.47.14 0 .28.03.41.09.13.06.25.15.34.28l1.16 1.64c.09.13.16.24.2.35.05.11.07.21.07.31 0 .12-.04.24-.11.36s-.16.24-.28.36l-.38.4c-.06.06-.08.12-.08.2 0 .04.01.08.02.12.02.04.03.07.04.1.09.17.25.38.47.64.468.55.98 1.062 1.53 1.53.26.22.48.37.65.46.03.01.06.03.09.04.04.02.08.02.13.02.09 0 .15-.03.21-.09l.38-.38c.13-.13.25-.22.36-.28.12-.07.23-.11.36-.11.1 0 .2.02.31.07.11.05.23.11.35.2l1.66 1.18c.13.09.22.2.28.32 0 .12.03.24.03.38Z"/></g></svg>
